X: 153
T: A Day At The Races
R: reel
M: 4/4
K: Cmajor
"C"GEFD EFGA|"Gm"_BcdB "C"cedc|"G"B2 cA "G7"BdGf|"Dm"defd "G"cBGF|
"C"GEFD EFGA|"Gm"_BcdB "C"cedc|"G"B2 cA "G7"BdGc|"G" BGFD "C"C4:|
"C"cGce gc"F/C"ac|"C"eg"G7"fd "C"cGEG|"F"AFFC "Dm"FGAc|"G"BGdG "G7"DGBd|
"C"cGce gc"F/C"ac|"C"eg"G7"fd "C"cGEG|"F"AFFC "Dm"FGAc|"G"BdGB "C"c4:|

